src/pages/styleguide/styleguide-open-contour-color.svg

<?xml version="1.0" encoding="UTF-8"?>
<svg xmlns="http://www.w3.org/2000/svg" xmlns:xlink="http://www.w3.org/1999/xlink" width="630px" height="px" viewBox="0 0 630 272" version="1.1">
<g id="surface1">
<path style=" stroke:none;fill-rule:nonzero;fill:rgb(88.627451%,43.921569%,13.333333%);fill-opacity:1;" d="M 197.359375 208.523438 L 209.449219 220.757812 L 234.886719 226.40625 L 229.011719 244.820312 L 232.425781 259.425781 L 242.46875 256.1875 L 254.410156 233.59375 L 262.140625 209.089844 C 245.246094 197.121094 239.835938 181.21875 233.097656 164.578125 Z M 197.359375 208.523438 "/>
<path style=" stroke:none;fill-rule:nonzero;fill:rgb(88.627451%,43.921569%,13.333333%);fill-opacity:1;" d="M 123.207031 205.847656 L 114.929688 218.742188 L 107.730469 252.929688 L 100.441406 260.890625 L 87.066406 255.953125 L 85.550781 232.128906 C 85.550781 232.128906 87.824219 211.660156 90.101562 202.421875 C 92.375 193.183594 114.359375 191.683594 114.359375 191.683594 L 123.203125 205.847656 Z M 123.207031 205.847656 "/>
<path style=" stroke:none;fill-rule:nonzero;fill:rgb(95.686275%,66.666667%,25.490196%);fill-opacity:1;" d="M 213.507812 140.003906 C 213.429688 139.898438 213.363281 139.816406 213.3125 139.75 C 213.367188 139.820312 213.425781 139.894531 213.507812 140.003906 Z M 213.507812 140.003906 "/>
<path style=" stroke:none;fill-rule:nonzero;fill:rgb(95.686275%,66.666667%,25.490196%);fill-opacity:1;" d="M 217.832031 145.585938 C 217.339844 144.953125 216.941406 144.4375 216.535156 143.921875 C 217.265625 144.859375 217.832031 145.585938 217.832031 145.585938 Z M 217.832031 145.585938 "/>
<path style=" stroke:none;fill-rule:nonzero;fill:rgb(95.686275%,66.666667%,25.490196%);fill-opacity:1;" d="M 216.558594 143.90625 C 215.523438 142.574219 214.15625 140.820312 213.507812 139.984375 C 213.960938 140.566406 214.917969 141.796875 216.558594 143.90625 Z M 216.558594 143.90625 "/>
<path style=" stroke:none;fill-rule:nonzero;fill:rgb(95.686275%,66.666667%,25.490196%);fill-opacity:1;" d="M 287.84375 82.148438 L 276.398438 80.726562 L 256.882812 87.792969 C 254.628906 101.839844 251.382812 124.242188 251.382812 124.242188 L 232.882812 141.589844 L 202.898438 145.691406 L 177.152344 134.648438 L 106.5 129.445312 L 77.195312 135.0625 L 48.425781 122.566406 L 29.046875 109.730469 L 12.5625 113.082031 L 20.523438 128.589844 L 5.429688 151.730469 L 9.710938 170.957031 C 9.710938 170.957031 30.773438 171 41.148438 173.453125 L 56.597656 168.019531 C 54.105469 178.691406 59.714844 189.851562 63.640625 199.507812 C 50.597656 205.90625 43.714844 211.355469 39.90625 220.5625 C 38.15625 224.792969 37.058594 235.382812 36.3125 241.65625 L 49.042969 251.011719 C 49.042969 251.011719 66.957031 249.59375 59.707031 230.242188 L 72.441406 217.839844 C 79.273438 214.238281 92.683594 207.972656 92.683594 207.972656 L 158.648438 211.273438 L 171.128906 225.742188 L 165.082031 259.511719 L 176.710938 258.285156 L 198.933594 228.789062 L 198.933594 212.957031 C 198.933594 212.957031 221.410156 187.851562 226.324219 172.632812 L 226.378906 172.707031 C 226.378906 172.707031 252.789062 159.074219 262.90625 138.558594 C 279.273438 115.625 259.828125 93.292969 283.097656 100.839844 C 288.960938 102.742188 296.214844 90.929688 289.101562 83.558594 C 287.816406 82.140625 288.25 82.621094 287.816406 82.140625 Z M 287.84375 82.148438 "/>
<path style="fill:none;stroke-width:2;stroke-linecap:round;stroke-linejoin:round;stroke:rgb(0%,0%,0%);stroke-opacity:1;stroke-miterlimit:10;" d="M 12.459913 35.739705 C 10.126946 36.739993 7.543251 36.572991 7.543251 36.572991 C 5.866297 36.719333 4.428049 32.563231 5.058302 31.840132 L 8.376147 26.740557 L 6.626207 23.323051 C 6.626207 23.323051 11.633886 21.908702 14.508665 25.413153 C 14.852986 25.833239 15.302921 26.156052 15.788062 26.400528 C 15.818115 26.415163 15.848168 26.430658 15.879079 26.446153 C 18.472219 27.734819 21.425135 28.017173 24.263851 27.443858 C 31.486002 25.986468 38.33378 26.074273 45.963793 29.656199 C 53.589513 33.238985 60.493962 27.405981 59.604395 22.155761 C 58.810997 17.508985 63.166098 14.572684 66.354286 17.156043 " transform="matrix(4.549263,0,0,4.537756,-17.593579,7.138341)"/>
<path style="fill:none;stroke-width:2;stroke-linecap:round;stroke-linejoin:round;stroke:rgb(0%,0%,0%);stroke-opacity:1;stroke-miterlimit:10;" d="M 16.049952 48.820062 C 16.651011 46.613747 24.541196 45.171852 24.541196 45.171852 C 24.541196 45.171852 27.768882 43.97099 25.967423 40.667974 " transform="matrix(4.549263,0,0,4.537756,-17.593579,7.138341)"/>
<path style="fill:none;stroke-width:2;stroke-linecap:round;stroke-linejoin:round;stroke:rgb(0%,0%,0%);stroke-opacity:1;stroke-miterlimit:10;" d="M 18.299629 33.239846 C 16.756625 35.074281 14.407344 38.043294 17.859998 42.398248 C 17.859998 42.398248 11.104096 45.251048 11.853702 50.43068 C 11.853702 50.43068 12.216055 52.907297 14.25622 52.833265 " transform="matrix(4.549263,0,0,4.537756,-17.593579,7.138341)"/>
<path style="fill:none;stroke-width:2;stroke-linecap:round;stroke-linejoin:round;stroke:rgb(0%,0%,0%);stroke-opacity:1;stroke-miterlimit:10;" d="M 23.499647 50.030393 C 22.343897 57.283772 25.885851 56.084631 26.516963 55.691231 C 27.664985 54.973296 28.364789 45.837276 30.469354 44.380746 C 32.061301 43.277158 38.636027 44.078594 38.636027 44.078594 " transform="matrix(4.549263,0,0,4.537756,-17.593579,7.138341)"/>
<path style="fill:none;stroke-width:2;stroke-linecap:round;stroke-linejoin:round;stroke:rgb(0%,0%,0%);stroke-opacity:1;stroke-miterlimit:10;" d="M 38.440253 41.329954 C 38.531271 43.07228 39.193294 44.731966 40.173879 46.174722 C 40.835902 47.147463 41.977056 48.494667 41.626724 49.160091 C 37.147977 57.659956 42.249249 56.181905 42.710347 55.327098 C 45.897677 49.409732 48.835137 51.222647 47.357391 44.806859 C 47.357391 44.806859 52.62696 42.997388 52.876829 36.83038 " transform="matrix(4.549263,0,0,4.537756,-17.593579,7.138341)"/>
<path style="fill:none;stroke-width:2;stroke-linecap:round;stroke-linejoin:round;stroke:rgb(0%,0%,0%);stroke-opacity:1;stroke-miterlimit:10;" d="M 48.14993 45.590217 C 48.14993 45.590217 50.517244 48.794237 55.907883 48.282902 C 55.907883 48.282902 52.58231 55.044745 55.907883 55.902995 C 57.825261 56.397114 60.62963 44.743157 60.62963 44.743157 C 60.62963 44.743157 58.791248 43.949469 56.678956 40.561231 " transform="matrix(4.549263,0,0,4.537756,-17.593579,7.138341)"/>
<path style="fill-rule:nonzero;fill:rgb(98.823529%,91.764706%,16.862745%);fill-opacity:1;stroke-width:2;stroke-linecap:butt;stroke-linejoin:miter;stroke:rgb(98.823529%,91.764706%,16.862745%);stroke-opacity:1;stroke-miterlimit:4;" d="M 52.240365 37.399631 L 54.146203 8.390346 L 52.748713 6.324616 L 48.763864 6.561486 L 46.926923 11.296141 L 44.551841 28.675821 L 42.646003 30.801229 L 39.989747 28.489447 L 37.489906 7.369416 L 35.334549 5.675517 L 33.197813 5.754474 L 31.209113 8.942126 L 34.152129 33.772208 L 31.594563 33.772208 C 29.559311 27.945012 25.177838 31.538465 24.4898 34.856487 C 20.075742 32.533688 19.598118 34.261557 17.870109 37.090231 L 17.649452 45.165861 C 17.913868 48.014733 18.169904 49.847265 18.522768 52.113142 L 20.219122 57.387641 L 26.219672 64.304625 L 34.552476 66.969877 L 42.135793 66.054529 L 49.052486 61.460344 L 52.532712 56.116069 C 53.726305 49.441464 53.588511 43.886026 52.240365 37.406058 Z M 52.240365 37.399631 " transform="matrix(4.195579,0,0,4.254699,397.231579,-18.038244)"/>
<path style="fill:none;stroke-width:2;stroke-linecap:round;stroke-linejoin:round;stroke:rgb(0%,0%,0%);stroke-opacity:1;stroke-miterlimit:4;" d="M 52.62023 31.129909 L 54.419929 8.950389 C 54.077306 3.986209 47.64103 3.930204 47.1932 8.923764 L 44.773428 26.284164 C 44.472702 28.462822 43.495111 30.245777 42.606899 30.245777 C 41.718687 30.245777 40.761579 28.460985 40.481336 26.278656 L 38.249634 8.939372 C 37.430319 3.6612 30.810628 4.616945 31.212837 8.94029 L 33.739678 29.970346 " transform="matrix(4.195579,0,0,4.254699,397.231579,-18.038244)"/>
<path style="fill:none;stroke-width:2;stroke-linecap:round;stroke-linejoin:round;stroke:rgb(0%,0%,0%);stroke-opacity:1;stroke-miterlimit:4;" d="M 53.630407 50.079545 C 53.630407 59.951901 45.610433 66.959778 35.739551 66.959778 " transform="matrix(4.195579,0,0,4.254699,397.231579,-18.038244)"/>
<path style="fill:none;stroke-width:2;stroke-linecap:round;stroke-linejoin:round;stroke:rgb(0%,0%,0%);stroke-opacity:1;stroke-miterlimit:4;" d="M 43.739974 47.29035 L 43.739974 44.957451 C 43.739974 43.856646 41.951447 42.75676 39.764435 42.516217 L 38.715154 42.3987 C 36.528142 42.157239 34.738684 40.547805 34.738684 38.625298 C 34.738684 36.701874 36.539314 35.29075 38.739361 35.29075 L 48.738726 35.29075 C 50.939703 35.245763 52.796196 36.923136 52.974025 39.117401 L 53.631339 50.327433 " transform="matrix(4.195579,0,0,4.254699,397.231579,-18.038244)"/>
<path style="fill:none;stroke-width:2;stroke-linecap:round;stroke-linejoin:round;stroke:rgb(0%,0%,0%);stroke-opacity:1;stroke-miterlimit:4;" d="M 37.960081 50.359566 C 39.590331 48.879585 41.583687 47.859573 43.737181 47.402358 " transform="matrix(4.195579,0,0,4.254699,397.231579,-18.038244)"/>
<path style="fill:none;stroke-width:2;stroke-linecap:round;stroke-linejoin:miter;stroke:rgb(0%,0%,0%);stroke-opacity:1;stroke-miterlimit:10;" d="M 18.530216 52.100289 C 19.67167 60.700155 27.06878 67.080049 35.739551 66.959778 C 45.406535 66.959778 53.630407 60.127259 53.630407 50.079545 " transform="matrix(4.195579,0,0,4.254699,397.231579,-18.038244)"/>
<path style="fill:none;stroke-width:2;stroke-linecap:round;stroke-linejoin:round;stroke:rgb(0%,0%,0%);stroke-opacity:1;stroke-miterlimit:4;" d="M 31.750047 49.719649 C 31.750047 50.978368 31.078767 52.139767 29.990382 52.767749 C 28.901066 53.395731 27.559438 53.39665 26.470121 52.767749 C 25.380805 52.138849 24.710456 50.977449 24.710456 49.719649 L 24.710456 33.760273 C 24.710456 32.501555 25.380805 31.340155 26.470121 30.712173 C 27.559438 30.084191 28.901066 30.083273 29.990382 30.712173 C 31.078767 31.341073 31.750047 32.503391 31.750047 33.761191 Z M 31.750047 49.719649 " transform="matrix(4.195579,0,0,4.254699,397.231579,-18.038244)"/>
<path style="fill:none;stroke-width:2;stroke-linecap:round;stroke-linejoin:round;stroke:rgb(0%,0%,0%);stroke-opacity:1;stroke-miterlimit:4;" d="M 24.710456 44.940007 C 24.710456 46.202398 24.039177 47.366552 22.949861 47.998207 C 21.860544 48.628943 20.518916 48.628943 19.4296 47.998207 C 18.341215 47.36747 17.669935 46.202398 17.669935 44.940007 L 17.669935 37.003011 C 17.669935 35.74062 18.341215 34.575548 19.4296 33.944812 C 20.518916 33.314075 21.860544 33.314075 22.949861 33.944812 C 24.039177 34.575548 24.710456 35.74062 24.710456 37.003011 Z M 24.710456 44.940007 " transform="matrix(4.195579,0,0,4.254699,397.231579,-18.038244)"/>
</g>
</svg>

<svg width="285.4" height="122.6" viewBox="0 0 285.4 122.6" version="1.1" xmlns="http://www.w3.org/2000/svg">
  <g id="color" transform="matrix(2.058 0 0 2.052 -7.959 3.228)">
    <path fill="#e27022" d="m47.25 44.38 2.658 2.696 5.591 1.245-1.291 4.058 0.75 3.218 2.208-0.7136 2.625-4.979 1.699-5.4c-3.714-2.637-4.903-6.142-6.384-9.809z"/>
    <path fill="#e27022" d="m30.95 43.79-1.819 2.842-1.583 7.534-1.602 1.754-2.94-1.088-0.3333-5.25s0.5-4.511 1-6.547 5.333-2.366 5.333-2.366l1.944 3.121z"/>
    <path fill="#f4aa41" d="m50.8 29.28c-0.0178-0.0229-0.0324-0.0417-0.0436-0.0563 0.0125 0.0162 0.0251 0.0325 0.0436 0.0563z"/>
    <path fill="#f4aa41" d="m51.75 30.51c-0.1079-0.1391-0.1959-0.2526-0.2845-0.3668 0.1603 0.2067 0.2845 0.3668 0.2845 0.3668z"/>
    <path fill="#f4aa41" d="m51.47 30.14c-0.2275-0.2932-0.5278-0.6804-0.6703-0.8642 0.0998 0.1286 0.3097 0.3994 0.6703 0.8642z"/>
    <path fill="#f4aa41" d="m67.14 16.53-2.516-0.3133-4.29 1.557c-0.4949 3.096-1.209 8.033-1.209 8.033l-4.066 3.823-6.591 0.9037-5.66-2.434-15.53-1.146-6.442 1.238-6.324-2.754-4.26-2.829-3.623 0.739 1.75 3.417-3.318 5.1 0.9412 4.237s4.63 0.0092 6.91 0.5499l3.396-1.197c-0.5476 2.351 0.6858 4.811 1.548 6.939-2.867 1.41-4.38 2.611-5.217 4.64-0.3842 0.9322-0.6255 3.266-0.7894 4.648l2.798 2.062s3.938-0.3125 2.344-4.577l2.799-2.733c1.502-0.7944 4.45-2.175 4.45-2.175l14.5 0.7273 2.743 3.189-1.329 7.442 2.556-0.2704 4.885-6.5v-3.489s4.941-5.533 6.021-8.887l0.0119 0.0164s5.806-3.004 8.03-7.525c3.597-5.054-0.6774-9.975 4.438-8.312 1.289 0.4189 2.883-2.184 1.32-3.809-0.2826-0.3119-0.1871-0.2065-0.2826-0.3119z"/>
  </g>
  <g id="line" transform="matrix(2.058 0 0 2.052 -7.959 3.228)" stroke-miterlimit="10">
    <path fill="none" stroke="#000" stroke-linecap="round" stroke-linejoin="round" stroke-miterlimit="10" stroke-width="2" d="m12.46 35.74c-2.333 1-4.917 0.8333-4.917 0.8333-1.677 0.1458-3.115-4.01-2.485-4.733l3.318-5.1-1.75-3.417s5.008-1.415 7.883 2.09c0.3444 0.42 0.7943 0.7429 1.279 0.9871 0.0298 0.015 0.0602 0.0302 0.0912 0.0456 2.593 1.289 5.546 1.571 8.385 0.9981 7.222-1.458 14.07-1.37 21.7 2.212 7.625 3.583 14.53-2.25 13.64-7.5-0.793-4.647 3.562-7.583 6.75-5"/>
    <path fill="none" stroke="#000" stroke-linecap="round" stroke-linejoin="round" stroke-miterlimit="10" stroke-width="2" d="m16.05 48.82c0.6006-2.206 8.491-3.648 8.491-3.648s3.228-1.201 1.426-4.504"/>
    <path fill="none" stroke="#000" stroke-linecap="round" stroke-linejoin="round" stroke-miterlimit="10" stroke-width="2" d="m18.3 33.24c-1.543 1.834-3.893 4.803-0.44 9.158 0 0-6.756 2.853-6.006 8.033 0 0 0.3624 2.476 2.402 2.402"/>
    <path fill="none" stroke="#000" stroke-linecap="round" stroke-linejoin="round" stroke-miterlimit="10" stroke-width="2" d="m23.5 50.03c-1.156 7.254 2.386 6.055 3.017 5.661 1.148-0.7173 1.848-9.854 3.952-11.31 1.592-1.104 8.167-0.3021 8.167-0.3021"/>
    <path fill="none" stroke="#000" stroke-linecap="round" stroke-linejoin="round" stroke-miterlimit="10" stroke-width="2" d="m38.44 41.33c0.0911 1.742 0.7529 3.402 1.734 4.845 0.6616 0.9727 1.803 2.32 1.453 2.985-4.479 8.5 0.6224 7.022 1.083 6.167 3.188-5.917 6.125-4.104 4.647-10.52 0 0 5.27-1.81 5.52-7.977"/>
    <path fill="none" stroke="#000" stroke-linecap="round" stroke-linejoin="round" stroke-miterlimit="10" stroke-width="2" d="m48.15 45.59s2.367 3.204 7.758 2.693c0 0-3.326 6.762 0 7.62 1.917 0.4941 4.722-11.16 4.722-11.16s-1.839-0.7937-3.951-4.182"/>
  </g>
  <g id="skin" transform="matrix(1.898 0 0 1.924 179.7 -8.157)">
    <path fill="#fcea2b" stroke="#fcea2b" stroke-width="2" d="m52.24 37.4 1.906-29.01-1.397-2.065-3.985 0.2361-1.837 4.735-2.375 17.38-1.906 2.125-2.656-2.312-2.5-21.12-2.155-1.694-2.137 0.07921-1.989 3.188 2.943 24.83h-2.557c-2.036-5.827-6.417-2.234-7.105 1.084-4.414-2.323-4.892-0.5945-6.62 2.234l-0.2205 8.076c0.2641 2.848 0.5205 4.681 0.873 6.947l1.697 5.274 6 6.917 8.333 2.666 7.583-0.916 6.917-4.594 3.48-5.344c1.194-6.675 1.056-12.23-0.292-18.71z"/>
  </g>
  <g transform="matrix(1.898 0 0 1.924 179.7 -8.157)">
    <path fill="none" stroke="#000" stroke-linecap="round" stroke-linejoin="round" stroke-width="2" d="m52.62 31.13 1.8-22.18c-0.3427-4.964-6.779-5.02-7.227-0.026l-2.42 17.36c-0.3 2.179-1.278 3.962-2.166 3.962s-1.845-1.785-2.126-3.967l-2.231-17.34c-0.8196-5.278-7.439-4.322-7.037 0.0011l2.527 21.03"/>
    <path fill="none" stroke="#000" stroke-linecap="round" stroke-linejoin="round" stroke-width="2" d="m18.38 49.62"/>
    <path fill="none" stroke="#000" stroke-linecap="round" stroke-linejoin="round" stroke-width="2" d="m53.63 50.08c0 9.872-8.02 16.88-17.89 16.88"/>
    <path fill="none" stroke="#000" stroke-linecap="round" stroke-linejoin="round" stroke-width="2" d="m43.74 47.29v-2.333c0-1.1-1.789-2.2-3.976-2.441l-1.049-0.117c-2.187-0.242-3.976-1.851-3.976-3.774s1.8-3.334 4-3.334h10c2.201-0.0448 4.057 1.632 4.235 3.826l0.657 11.21"/>
    <path fill="none" stroke="#000" stroke-linecap="round" stroke-linejoin="round" stroke-width="2" d="m37.96 50.36c1.63-1.48 3.624-2.5 5.777-2.958"/>
    <path fill="none" stroke="#000" stroke-linecap="round" stroke-miterlimit="10" stroke-width="2" d="m18.53 52.1c1.142 8.6 8.539 14.98 17.21 14.86 9.667 0 17.89-6.833 17.89-16.88"/>
    <path fill="none" stroke="#000" stroke-linecap="round" stroke-linejoin="round" stroke-width="2" d="m31.75 49.72c0 1.258-0.6709 2.42-1.76 3.048s-2.431 0.6288-3.52 0-1.76-1.791-1.76-3.048v-15.96c0-1.258 0.6709-2.42 1.76-3.048s2.431-0.6288 3.52 0c1.089 0.6288 1.76 1.791 1.76 3.049z" paint-order="normal"/>
    <path fill="none" stroke="#000" stroke-linecap="round" stroke-linejoin="round" stroke-width="2" d="m24.71 44.94c0 1.262-0.6709 2.427-1.76 3.058s-2.431 0.6308-3.52 0c-1.089-0.6308-1.76-1.796-1.76-3.058v-7.937c0-1.262 0.6709-2.427 1.76-3.058 1.089-0.6308 2.431-0.6308 3.52 0s1.76 1.796 1.76 3.058z" paint-order="normal"/>
  </g>
</svg>
